X:2ery Houtns
Z:id:hn-jig-265
M:6/8
K:Alile
D:D2EC:jig-201
M:6/8
K: I AFE GFA d^cde|efa ged|ed^c ced|efe dBd|dBA ~F3|Adf d^cd|f2d agf|gfe ecA:|2 AGE AFE|FEG EDE|FGG A2d||
|:AFA BcB|~G3 EGA|GFG ABc:|2 BG BcA|d2e d3|gfe fdA|ddB AGE|[/3 ~G3 BGE|ded A2G|Ade agd|dBe Aeg|
fed d2f|
Daf aed|GAF FED | :cde|2 baa ~g3|dfd B2d|1 gge =dB||

